!!!!SEGMENT: pl-kk--kk-i-10--002-001_pekiel-bartlomiej--missa-paschalis-kyrie.krn
!!!cenid: 16xx:1185
!!!COM: Pękiel, Bartłomiej
!!!COM-rismID: pe30105642
!!!CDT: <1633-~1670
!!!CNT: Polish
!!!OPR: Missa Paschalis
!!!OTL: Kyrie
!!!OMV: 001
!!!PDT:
!!!AGN: Sacred; Mass
!!!SMS-siglum: PL-Kk
!!!SMS-shelfmark: Kk.I.10
!!!SMS-shelfwork: 002-001 M
!!!SMS-variant:
!!!SMS-altvar:
!!!NIFC-rismSourceID: 1001151830
!!!NIFC-islandoraID: pl-kk:2434
!!!URL-pdf-islandora: https://repozytorium.nifc.pl/islandora/object/pl-kk%3A2434/datastream/PDF/view
!!!URL-scan: https://polish.musicsources.pl/pl/lokalizacje/galeria/rekopisy/5737 @EN{Scan on Polish Music Sources Website} @PL{Skany w portalu Dziedzictwo Muzyki Polskiej w otwartym dostępie}
!!!ONB-nifc: UWAGA: części Mszy: 1. Kyrie, 2. Et in terra, 3. Patrem, 4. Sanctus, 5. Agnus Dei. T1mus (skan 0007-0010), T2dus (0057-0060), B (0106-0109)
!!!AIN: 1 bass 2 tenor
!!!key:
**kern	**text	**kern	**text	**kern	**text
*part3	*part3	*part2	*part2	*part1	*part1
*staff3	*staff3	*staff2	*staff2	*staff1	*staff1
*Ibass	*	*Itenor	*	*Itenor	*
*I"Bassus.	*	*I"Tenor ſecundus	*	*I"Tenor 1mus	*
*I'B	*	*I'T 2	*	*I'T 1	*
*clefF4	*	*clefC4	*	*clefC4	*
*k[]	*	*k[]	*	*k[]	*
*a:	*	*a:	*	*a:	*
*M2/1	*	*M2/1	*	*M2/1	*
*met(C|)	*	*met(C|)	*	*met(C|)	*
*all\right	*	*all\right	*	*all\right	*
=1-	=1-	=1-	=1-	=1-	=1-
4.D/	Ky-	0rA	.	4.d\	Ky-
8D/	-ri-	.	.	8d\	-ri-
*2\right	*	*	*	*	*
!LO:TX:t=P:problem=kreska pseudotaktowa	!	!	!	!	!
2A\	-e	.	.	8c\L	-e
.	.	.	.	8B\	.
.	.	.	.	8c\	.
.	.	.	.	8d\J	.
2E\	e-	.	.	4.e\	E-
.	.	.	.	16d\LL	.
.	.	.	.	16c\JJ	.
!LO:TX:t=P:problem=kreska pseudotaktowa	!	!	!	!	!
2G\	.	.	.	8B\L	.
.	.	.	.	8A\	.
.	.	.	.	8B\	.
.	.	.	.	8c\J	.
=2-	=2-	=2-	=2-	=2-	=2-
*	*	*	*	*2\right	*
2F\	.	1rA	.	2.d\	.
!LO:TX:t=P:problem=kreska pseudotaktowa	!	!	!	!	!
2E\	-ley-	.	.	.	.
!	!	!	!	!LO:TX:a:t=P:problem=♯ above	!
.	.	.	.	4c#X\	-ley-
4D/	-son	4.A/	Ky-	2d\	-son
8D/	Ky-	.	.	.	.
8C/	-ri-	8A/	-ri-	.	.
*	*	*2\right	*	*	*
8BBn/L	-e	2B\	-e	2r	.
8AA/J	.	.	.	.	.
!LO:TX:t=P:problem=kreska pseudotaktowa	!	!	!	!	!
4GG/	.	.	.	.	.
=3-	=3-	=3-	=3-	=3-	=3-
*	*	*	*	*	*ij
8AA/L	.	2c\	e-	4.A/	Ky-
8BB/	.	.	.	.	.
8C/	.	.	.	.	.
8AA/J	.	.	.	8A/	-ri-
8E\L	.	2B\	.	2B\	-e
8F\	.	.	.	.	.
8G\	.	.	.	.	.
!LO:TX:t=P:problem=kreska pseudotaktowa	!	!	!	!	!
8E\J	.	.	.	.	.
4A\	.	2.A/	-ley-	2cny\	E-
*custos:D	*	*	*	*	*
4C/	.	.	.	.	.
!LO:LB:g=original	!	!	!	!	!
4D/	e-	.	.	2B\	-ley-
!LO:TX:t=P:problem=kreska pseudotaktowa	!	!LO:TX:b:t=P:problem=♯ below	!	!	!
4E\	-ley-	4G#X/	.	.	.
=4-	=4-	=4-	=4-	=4-	=4-
!	!	!	!	!LO:TX:a:t=P:problem=♯ above	!
4AA/	-son	1A	-son	1c#X	-son
2A\	Ky-	.	.	.	.
!LO:TX:t=P:problem=kreska pseudotaktowa	!	!	!	!	!
4G\	-ri-	.	.	.	.
*	*	*	*ij	*	*
8F#X\L	-e	2d\	Ky-	4.A/	Ky-
8D\	.	.	.	.	.
8E\	.	.	.	.	.
*	*	*	*	*custos:G	*
8F#\J	.	.	.	8A/	-ri-
!	!	!	!	!LO:LB:g=original	!
4G\	.	2B\	-ri-	2.G/	-e
!LO:TX:t=P:problem=kreska pseudotaktowa	!	!	!	!	!
4GG/	.	.	.	.	.
=5-	=5-	=5-	=5-	=5-	=5-
2C/	E-	2c\	-e	.	.
.	.	.	.	4.cny\	E-
8FF/L	.	2A/	e-	.	.
8GG/	.	.	.	8B-X\L	.
8AA/	.	.	.	8c\	.
!LO:TX:t=P:problem=kreska pseudotaktowa	!	!	!	!	!
8BB-X/J	.	.	.	8d\J	.
8C/L	.	2Gny/	-ley-	8e\L	.
8D/	.	.	.	8d\	.
8E/	.	.	.	8c\	.
8C/J	.	.	.	8B-\J	.
!LO:TX:t=P:problem=kreska pseudotaktowa	!	!	!	!	!
2D/	-ley-	2F/	.	8A/L	.
.	.	.	.	8G/J	.
.	.	.	.	4A/	-ley-
=6-	=6-	=6-	=6-	=6-	=6-
!LO:TX:t=P:problem=kreska pseudotaktowa	!	!	!	!	!
1AA	-son	1E	-son	4A,</	-son
.	.	.	.	8.A/	Ky-
.	.	.	.	16Bny\	-ri-
.	.	.	.	8c#X\L	-e
.	.	.	.	8A\	.
.	.	.	.	8B\	.
.	.	.	.	8c#\J	.
*	*ij	*	*	*	*
4.D/	Ky-	2rG	.	8d\L	.
.	.	.	.	8A\J	.
.	.	.	.	4.d\	.
8D/	-ri-	.	.	.	.
!LO:TX:t=P:problem=kreska pseudotaktowa	!	!	!	!	!
2A\	-e	4.A/	Ky-	.	.
.	.	.	.	16c#\LL	.
.	.	.	.	16B\JJ	.
.	.	.	.	4c#\	.
*	*	*custos:e	*	*	*
.	.	8A/	-ri-	.	.
!	!	!LO:LB:g=original	!	!	!
=7-	=7-	=7-	=7-	=7-	=7-
2E\	E-	2e\	-e	8G/L	E-
.	.	.	.	8A/J	.
.	.	.	.	4.B\	.
*custos:F	*	*	*	*	*
!LO:TX:t=P:problem=kreska pseudotaktowa	!	!	!	!	!
2G\	.	2B\	e-	.	.
.	.	.	.	8cny\L	.
.	.	.	.	8d\	.
.	.	.	.	8e\J	.
!LO:LB:g=original	!	!	!	!	!
2Fny\	.	2.d\	-ley-	8f\L	.
.	.	.	.	8e\J	.
.	.	.	.	4d\	-ley-
*	*	*	*	*custos:E	*
4E\	.	.	.	2e\	-son
*	*	*	*	*	*Xij
!LO:TX:t=P:problem=kreska pseudotaktowa	!	!	!	!	!
4AA/	.	4c\	.	.	.
!	!	!	!	!LO:LB:g=original	!
=8-	=8-	=8-	=8-	=8-	=8-
!LO:TX:t=P:problem=kreska pseudotaktowa	!	!	!	!	!
1E	.	4B\	-son	2.E/	e-
.	.	2A/	Ky-	.	.
!	!	!LO:TX:b:t=P:problem=♯ below	!	!	!
.	.	4G#X/	-ri-	4.e\	.
4AA/	.	2.A/	-e	.	.
.	.	.	.	8d\L	.
8A\	.	.	.	8c\	.
8G\	.	.	.	8B\J	.
8F\L	.	.	.	4A/	.
8E\J	.	.	.	.	.
!LO:TX:t=P:problem=kreska pseudotaktowa	!	!	!	!	!
4D/	.	4f\	e-	2d\	.
=9-	=9-	=9-	=9-	=9-	=9-
1E	-ley-	1e	-ley-	.	.
.	.	.	.	4c\	ley-
.	.	.	.	2B\	.
!LO:TX:t=P:problem=kreska pseudotaktowa	!	!	!	!	!
1AA	-son	1e	-son	1c#X	-son
*	*Xij	*	*Xij	*	*
=10-	=10-	=10-	=10-	=10-	=10-
0rE	.	1rA	.	4r	.
.	.	.	.	4A\	CHri-
.	.	.	.	4B\	-ſte
.	.	.	.	4c#X\	e-
.	.	2D/	CHri-	8d\L	.
.	.	.	.	8c#\	.
.	.	.	.	8A\	.
.	.	.	.	8B\J	.
.	.	2A/	.	8c#\L	.
.	.	.	.	8B\	.
.	.	.	.	8c#\	.
.	.	.	.	8d\J	.
=11-	=11-	=11-	=11-	=11-	=11-
!LO:TX:t=P:problem=kreska pseudotaktowa	!	!	!	!	!
1rE	.	2E/	-ſte	4.e\	.
.	.	.	.	16d\LL	.
.	.	.	.	16cny\JJ	.
.	.	2Gny/	e-	8B\L	.
.	.	.	.	8A\	.
.	.	.	.	8B\	.
.	.	.	.	8c\J	.
4r	.	2F/	.	2d\	.
4A\	CHri-	.	.	.	.
4B\	.	2E/	-ley-	2e\	.
!LO:TX:t=P:problem=kreska pseudotaktowa	!	!	!	!	!
!LO:TX:b:t=P:problem=♯ below	!	!	!	!	!
4c#X\	.	.	.	.	.
=12-	=12-	=12-	=12-	=12-	=12-
8d\L	-ſte	2D/	-son	4.A\	.
8D\	.	.	.	.	.
8F\	.	.	.	.	.
8G\J	.	.	.	8B\	.
*	*	*	*	*custos:B	*
4A\	.	2rG	.	2c\	.
!LO:TX:t=P:problem=kreska pseudotaktowa	!	!	!	!	!
4AA/	.	.	.	.	.
*	*	*	*ij	*	*
!	!	!	!	!LO:LB:g=original	!
2E\	.	2E/	CHri-	8B\L	.
.	.	.	.	8A\	.
.	.	.	.	8B\	.
.	.	.	.	8c\J	.
*custos:D	*	*custos:F	*	*	*
!LO:TX:t=P:problem=kreska pseudotaktowa	!	!	!	!	!
2BBny/	.	2B\	ſte	2.d\	.
!LO:LB:g=original	!	!LO:LB:g=original	!	!	!
=13-	=13-	=13-	=13-	=13-	=13-
!	!	!LO:TX:b:t=P:problem=♯ below	!	!	!
2D/	.	8F#X/L	e-	.	.
.	.	8E/	.	.	.
.	.	8F#/	.	8A\L	.
.	.	8G/J	.	8B\J	.
!LO:TX:t=P:problem=kreska pseudotaktowa	!	!	!	!	!
2C/	e-	8A/L	.	4.c\	.
.	.	8F#/J	.	.	.
.	.	2A/	-ley-	.	.
.	.	.	.	16B\LL	.
.	.	.	.	16A\JJ	.
2BB/	-ley-	.	.	2B\	-ley-
.	.	4G#X/	.	.	.
2AA/	-son	2A/	-son	2E/	-son
*	*	*	*Xij	*	*
=14-	=14-	=14-	=14-	=14-	=14-
*M3/2	*	*M3/2	*	*M3/2	*
1A	Ky-	1A	Ky-	1c#X	Ky-
!LO:TX:t=P:problem=kreska pseudotaktowa	!	!	!	!	!
2F#X\	-ri-	2A/	-ri-	2d#X\	-ri-
=15-	=15-	=15-	=15-	=15-	=15-
1E	-e	1.B	-e	1e	-e
*	*ij	*	*	*	*
!LO:TX:t=P:problem=kreska pseudotaktowa	!	!	!	!	!
2BBn/	Ky-	.	.	2dny\	e-
=16-	=16-	=16-	=16-	=16-	=16-
2C/	-rie	2Gny/	e-	1cny	-ley-
*	*Xij	*	*	*	*
2AA/	e-	2A/	.	.	.
!LO:TX:t=P:problem=kreska pseudotaktowa	!	!	!	!	!
2BB/	-ley-	2F#X/	-ley-	2B\	.
=17-	=17-	=17-	=17-	=17-	=17-
!LO:TX:t=P:problem=kreska pseudotaktowa	!	!	!	!	!
1.E	-son	1.G#X	-son	2B\	-son
*	*	*	*	*	*ij
.	.	.	.	2e\	Ky-
.	.	.	.	2B\	-ri-
=18-	=18-	=18-	=18-	=18-	=18-
*	*ij	*	*ij	*	*
2.AA/	Ky-	1A	Ky-	1c#X	-e
4AA/	-ri-	.	.	.	.
!LO:TX:t=P:problem=kreska pseudotaktowa	!	!	!	!	!
2D/	-e	2A/	-ri-	2d\	e-
=19-	=19-	=19-	=19-	=19-	=19-
1GG	e-	1B	-e	1d	-ley-
!LO:TX:t=P:problem=kreska pseudotaktowa	!	!	!	!	!
2C/	.	1Gny/	e-	2cny\	.
=20-	=20-	=20-	=20-	=20-	=20-
2GG/	.	.	.	2B\	.
*custos:E	*	*custos:E	*	*custos:G	*
!LO:TX:t=P:problem=kreska pseudotaktowa	!	!	!	!	!
1AA	-ley-	1E	-ley-	1A	.
!LO:LB:g=original	!	!LO:LB:g=original	!	!LO:LB:g=original	!
=21-	=21-	=21-	=21-	=21-	=21-
!LO:TX:t=P:problem=kreska pseudotaktowa	!	!	!	!	!
1.E	-son	2E/	-son	1.G#X	-son
*	*Xij	*	*	*	*
.	.	4.B/	Ky-	.	.
.	.	8E/	-ri-	.	.
.	.	4e\	-e	.	.
.	.	4d\	e-	.	.
=22-	=22-	=22-	=22-	=22-	=22-
2.AA/	Ky-	4c\	-ley-	2.A/	Ky-
.	.	4B\	-son	.	.
.	.	2A/	Ky-	.	.
4AA/	-ri-	.	.	4A/	-ri-
!LO:TX:t=P:problem=kreska pseudotaktowa	!	!	!	!	!
2E\	-e	4G/	-ri-	2.B\	-e
.	.	4A/	-e	.	.
=23-	=23-	=23-	=23-	=23-	=23-
1BB	e-	2.B\	e-	.	.
.	.	.	.	4c\	e-
.	.	.	.	4d\	.
.	.	8A/L	.	4e\	.
.	.	8G/J	.	.	.
!LO:TX:t=P:problem=kreska pseudotaktowa	!	!	!	!	!
2D/	.	4F#X/	ley-	2f#X\	-ley-
.	.	4G/	.	.	.
=24-	=24-	=24-	=24-	=24-	=24-
*	*ij	*	*	*	*
2.C/	-ley-	2A/	-son	2e\	-son
.	.	1e	Ky-	2rG	.
4D/	.	.	.	.	.
1E\	-son	.	.	4.E/	Ky-
.	.	.	.	8E/	-ri-
=25-	=25-	=25-	=25-	=25-	=25-
.	.	2B\	-ri-	1B	-e
2BB/	Ky-	1d	-e	.	.
!LO:TX:t=P:problem=kreska pseudotaktowa	!	!	!	!	!
2D/	-ri-	.	.	4F#X/	e-
.	.	.	.	4Gny/	.
=26-	=26-	=26-	=26-	=26-	=26-
4AA/	-e	1c	e-	1A	-ley-
4BB/	.	.	.	.	.
4C/	.	.	.	.	.
4D/	.	.	.	.	.
!LO:TX:t=P:problem=kreska pseudotaktowa	!	!	!	!	!
2E\	.	2B\	.	2G#X/	-son
=27-	=27-	=27-	=27-	=27-	=27-
2Fny\	e-	1A	-ley-	2A/	-son
2D/	-ley-	.	.	2d\	e-
2E\	-son	2G#X/	.	2B\	-ley-
*	*Xij	*	*	*	*
=28-	=28-	=28-	=28-	=28-	=28-
*M2/1	*	*M2/1	*	*M2/1	*
*met(C|)	*	*met(C|)	*	*met(C|)	*
4A\	E-	[0Al;	-son	2c\	-son
*	*	*	*Xij	*	*
4G\	.	.	.	.	.
4F\	.	.	.	4.c\	Ky-
*custos:D	*	*	*	*	*
!LO:TX:t=P:problem=kreska pseudotaktowa	!	!	!	!	!
4E\	.	.	.	.	.
.	.	.	.	8c\	-ri-
!LO:LB:g=original	!	!	!	!	!
2D/	.	.	.	2d\	-e
!LO:TX:t=P:problem=kreska pseudotaktowa	!	!	!	!	!
!LO:TX:b:t=P:problem=♯ below	!	!	!	!	!
2C#X/	.	.	.	2e\	e-
=29-	=29-	=29-	=29-	=29-	=29-
1D	-ley-	0A]	.	1fny	-ley-
1AAl;	-son	.	.	1el;<	-son
*	*	*	*	*	*Xij
==	==	==	==	==	==
*-	*-	*-	*-	*-	*-
!!!system-decoration: [(s1,s2,s3)]
!!!RDF**kern: > = above
!!!RDF**kern: < = below
!!!RDF**kern: l = terminal long
!!!ENC: Andrzej Kubiczek
!!!END: 2021-07-04
!!!ENC: Krzysztof Stępień
!!!END: 2021-06-23
